bundles/org.openhab.ui.habpanel/web/assets/icons/smarthome-set/socket-i.svg

<?xml version="1.0" encoding="UTF-8" standalone="no"?>
<svg width="32px" height="32px" viewBox="0 0 32 32" version="1.1" xmlns="http://www.w3.org/2000/svg" xmlns:xlink="http://www.w3.org/1999/xlink" xmlns:sketch="http://www.bohemiancoding.com/sketch/ns">
    <!-- Generator: Sketch 3.3.2 (12043) - http://www.bohemiancoding.com/sketch -->
    <title>socket i</title>
    <desc>Created with Sketch.</desc>
    <defs></defs>
    <g id="flatten" stroke="none" stroke-width="1" fill="none" fill-rule="evenodd" sketch:type="MSPage">
        <g id="z-copy" sketch:type="MSArtboardGroup" transform="translate(-36.000000, -132.000000)" fill="#000000">
            <g id="socket-i" sketch:type="MSLayerGroup" transform="translate(36.000000, 132.000000)">
                <path d="M0,6.00017566 C0,2.68637015 2.68697795,0 6.00017566,0 L25.9998243,0 C29.3136299,0 32,2.68697795 32,6.00017566 L32,25.9998243 C32,29.3136299 29.3130221,32 25.9998243,32 L6.00017566,32 C2.68637015,32 0,29.3130221 0,25.9998243 L0,6.00017566 L0,6.00017566 Z M2,6.00017566 L2,25.9998243 C2,28.2086938 3.79118088,30 6.00017566,30 L25.9998243,30 C28.2086938,30 30,28.2088191 30,25.9998243 L30,6.00017566 C30,3.7913062 28.2088191,2 25.9998243,2 L6.00017566,2 C3.7913062,2 2,3.79118088 2,6.00017566 L2,6.00017566 Z M4,9.00197269 C4,6.23945945 6.23630996,4 9.00197269,4 L22.9980273,4 C25.7605405,4 28,6.23630996 28,9.00197269 L28,22.9980273 C28,25.7605405 25.76369,28 22.9980273,28 L9.00197269,28 C6.23945945,28 4,25.76369 4,22.9980273 L4,9.00197269 L4,9.00197269 Z M5,9.00197269 L5,22.9980273 C5,25.2102201 6.79055863,27 9.00197269,27 L22.9980273,27 C25.2102201,27 27,25.2094414 27,22.9980273 L27,9.00197269 C27,6.78977986 25.2094414,5 22.9980273,5 L9.00197269,5 C6.78977986,5 5,6.79055863 5,9.00197269 L5,9.00197269 Z M16,25 C11.0294373,25 7,20.9705627 7,16 C7,11.0294373 11.0294373,7 16,7 C20.9705627,7 25,11.0294373 25,16 C25,20.9705627 20.9705627,25 16,25 L16,25 Z M16,24 C20.418278,24 24,20.418278 24,16 C24,11.581722 20.418278,8 16,8 C11.581722,8 8,11.581722 8,16 C8,20.418278 11.581722,24 16,24 L16,24 Z M16,21 C15.4477153,21 15,20.5566468 15,19.9906311 L15,18.0093689 C15,17.4519098 15.4438648,17 16,17 C16.5522847,17 17,17.4433532 17,18.0093689 L17,19.9906311 C17,20.5480902 16.5561352,21 16,21 L16,21 Z M17.2679492,13 C17.5440916,12.5217074 18.1519043,12.3556512 18.6420883,12.638659 L20.3579117,13.6292901 C20.8406854,13.9080197 21.0101184,14.5183728 20.7320508,15 C20.4559084,15.4782926 19.8480957,15.6443488 19.3579117,15.361341 L17.6420883,14.3707099 C17.1593146,14.0919803 16.9898816,13.4816272 17.2679492,13 L17.2679492,13 Z M11.2679492,15 C10.9918068,14.5217074 11.1519043,13.912298 11.6420883,13.6292901 L13.3579117,12.638659 C13.8406854,12.3599295 14.4539832,12.5183728 14.7320508,13 C15.0081932,13.4782926 14.8480957,14.087702 14.3579117,14.3707099 L12.6420883,15.361341 C12.1593146,15.6400705 11.5460168,15.4816272 11.2679492,15 L11.2679492,15 Z" sketch:type="MSShapeGroup"></path>
            </g>
        </g>
    </g>
</svg>

<svg width="32" height="32" xmlns="http://www.w3.org/2000/svg"><path d="M0 6a6 6 0 0 1 6-6h20a6 6 0 0 1 6 6v20a6 6 0 0 1-6 6H6a6 6 0 0 1-6-6V6Zm2 0v20a4 4 0 0 0 4 4h20a4 4 0 0 0 4-4V6a4 4 0 0 0-4-4H6a4 4 0 0 0-4 4Zm2 3.002A5 5 0 0 1 9.002 4h13.996A5 5 0 0 1 28 9.002v13.996A5 5 0 0 1 22.998 28H9.002A5 5 0 0 1 4 22.998V9.002Zm1 0v13.996A4 4 0 0 0 9.002 27h13.996A4 4 0 0 0 27 22.998V9.002A4 4 0 0 0 22.998 5H9.002A4 4 0 0 0 5 9.002ZM16 25a9 9 0 1 1 0-18 9 9 0 0 1 0 18Zm0-1a8 8 0 1 0 0-16 8 8 0 0 0 0 16Zm0-3a1 1 0 0 1-1-1.01v-1.98a1 1 0 1 1 2 0v1.98c0 .558-.444 1.01-1 1.01Zm1.268-8a1 1 0 0 1 1.374-.361l1.716.99a1 1 0 1 1-1 1.732l-1.716-.99A1.002 1.002 0 0 1 17.268 13Zm-6 2a1 1 0 0 1 .374-1.37l1.716-.991a1 1 0 1 1 1 1.732l-1.716.99A1.002 1.002 0 0 1 11.268 15Z" fill="#000" fill-rule="evenodd"/></svg>
